**kern	**kern	**dynam
*part1	*part1	*part1
*staff2	*staff1	*
*I"Piano	*	*
*clefF4	*clefG2	*
*k[f#c#g#d#]	*k[f#c#g#d#]	*
=1	=1	=1
4BB	8BL	.
.	8d#	.
8r	8f#J	.
4BB	4A 4B 4d#	.
8r	8r	.
=	=	=
4E	8G#L	.
.	8B	.
8r	8eJ	.
4E;	4.G#;	.
8r	.	.
=:|!	=:|!	=:|!
4BB	8BL	.
.	8d#	.
8r	8f#J	.
4BB	4A 4B 4d#	.
8r;	8r;	.
=	=	=
(8EL 8G#	[4.b [4.bb	f
8B	.	.
8eJ)	.	.
(8EL	8bL] 8bb]	.
8G#	(8ccc#	.
8BJ)	8bbJ)	.
=	=	=
(8AAL 8C#	(4bb	.
8F#	.	.
8AJ)	8aa	.
(8AAL 8C#	4.ff#)	.
8F#	.	.
8AJ)	.	.
=	=	=
(8BBL	(4ee	.
8E	.	.
8G#J)	8gg#	.
(8BBL 8D#	8.bbL)	.
8F#	.	.
.	(16ccc#L	.
8AJ)	16aa	.
.	16ff#JJ)	.
=	=	=
8E 8G#	8ee	.
(8GG#L	8G#L 8B 8e	.
8BBJ)	8G#J 8B 8e	.
4EE	4G# 4B 4e	.
==	==	==
*-	*-	*-
!!!system-decoration: {(s1,s2)}
